X:1
T:Blahoslovy
T:Blahoslovy
T:Kyryklo Stetsenko (1882-1922)
C:Kyrylo Stetsenko
%%score [ ( 1 2 ) ( 3 4 ) 5 6 ]
L:1/8
Q:1/4=120
M:4/4
K:Eb
V:1 treble nm="Sopran"
V:2 treble 
V:3 treble nm="Alt"
V:4 treble 
V:5 treble-8 nm="Tenor"
V:6 bass nm="Bass"
V:1
 z2!p! E2 F2 G2 |[M:3/2] A4 G2 B2 F2 E2 |[M:4/4] F6 G2 | F2 F2 F2 G2 | A2 A2 G2 F2 | (B4 E4 | %6
w: Bla- ho- slo-|vy, du- she mo- ya,|Hos- po-|da. Bla- ho- slo-|ven- nyy ye- sy,|Hos- *|
 A4 G2) F2 | F8- | F2!mf! E2 F2 G2 |[M:3/2] A4 G2 B2 F2 E2 | F6 G2 F4 |[M:4/4] B4 E4 | A4 (G2 F2) | %13
w: * * spo-|dy.|_ Bla- ho- slo-|vy, du- she mo- ya,|Hos- po- da|i vsya|i- sto- *|
 B4 E4 | (A6 G2) | (F2 G2) A2 A2 | G4 F2 E2 | F8- |!f! F2 E2 F2 G2 |[M:3/2] A4 G2 B2 F2 E2 | %20
w: ta mo-|ya _|I- * mya Svya-|te- ye Yo-|ho.|_ Bla- ho- slo-|vy, du- she mo- ya,|
[M:4/4] F6 G2 | F8 | F2 F2 G2 A2 | (B4 e4) | (d6 e2) | B4 (B2 c2) | (d6 e2 |!>(! B2) c2 G4 | %28
w: Hos- po-|da|i ne za- bu-|vay _|vsih _|do- bro _|diystv _|_ _ Yo-|
 B8-!>)! |!p! B4 uc4 | (c2 B2) (c2 e2) | e6 e2 |[M:3/2] c4 (c2 B2) (c2 e2) |[M:4/4]!<(! e8- | %34
w: ho.|_ Bla-|ho- * slo- *|vy, du-|she mo- * ya, *|Hos-|
 e6 e2!<)! | (d2 e2 f2 g2) |!ff! a8 | g4 f4 | (e4 d2 e2 |!>(! c4 B2 c2 | A4) A2!>)! A2 | (G4 B4) | %42
w: * po-|da, _ _ _|bla-|ho- slo-|ven- * *||* nyy ye-|sy, _|
!p! uF8- |"^rit." F4 F4 | E8 |] %45
w: Hos-|* spo-|dy.|
V:2
 x8 |[M:3/2] x12 |[M:4/4] x8 | x8 | x8 | x8 | x8 | x8 | x8 |[M:3/2] x12 | x12 |[M:4/4] x8 | x8 | %13
 x8 | x8 | x8 | x8 | x8 | x8 |[M:3/2] x12 |[M:4/4] x8 | x8 | x8 | x8 | x8 | x8 | x8 | x8 | x8 | %29
 B4 A4 | A4 A4 | B6 B2 |[M:3/2] A4 A4 A4 |[M:4/4] (B4 c4- | c6) c2 | (B2 c2 d2 e2) | f8 | d4 d4 | %38
 x8 | x8 | x8 | x8 | x8 | x8 | x8 |] %45
V:3
 z2!p! E2 F2 G2 |[M:3/2] A4 G2 B2 F2 E2 |[M:4/4] D6 E2 | D2 D2 D2 E2 | F2 F2 D2 D2 | E8- | E6 E2 | %7
w: Bla- ho- slo-|vy, du- she mo- ya,|Hos- po-|da. Bla- ho- slo-|ven- nyy ye- sy,|Hos-|* spo-|
 D8- | D2!mf! E2 F2 G2 |[M:3/2] A4 G2 B2 F2 E2 | D6 E2 D4 |[M:4/4] (E2 D2) (C2 E2) | (F2 E2) D4 | %13
w: dy.|_ Bla- ho- slo-|vy, du- she mo- ya,|Hos- po- da|i _ vsya _|i- * sto-|
 (E2 D2) (C2 E2) | (F6 E2) | (C2 E2) F2 F2 | E4 D2 C2 | D8- |!f! D2 E2 F2 G2 | %19
w: ta _ mo- *|ya _|I- * mya Svya-|te- ye Yo-|ho.|_ Bla- ho- slo-|
[M:3/2] A4 G2 B2 F2 E2 |[M:4/4] D6 E2 | D8 | D2 D2 E2 F2 | G8 | (A6 G2) | F4 G4 | (A6 G2 | %27
w: vy, du- she mo- ya,|Hos- po-|da|i ne za- bu-|vay|vsih _|do- bro|diystv _|
!>(! F4) E4 | D8-!>)! |!p! D4 uE4 | E4 E4 | E6!<(!!<(! E2 |[M:3/2] E4 E4!<)!!<)! E4 | %33
w: _ Yo-|ho.|_ Bla-|ho- slo-|vy, du-|she * *|
[M:4/4]!<(! (E8- | A6) A2!<)! | (F4 B4) | c8 | =B4 B4 | (G8 |!>(! A4 E4- | E4) E2 D2!>)! | E8 | %42
w: Hos-|* po-|da, _|bla-|ho- slo-|ven-||* nyy ye-|sy,|
!p! uE8- | E4 D4 | E8 |] %45
w: |||
V:4
 x8 |[M:3/2] x12 |[M:4/4] x8 | D2 D2 B,2 B,2 | C2 C2 B,2 B,2 | B,4 C4- | C4 G,2 C2 | x8 | x8 | %9
w: |||||||||
[M:3/2] x12 | D6 B,2 B,4 |[M:4/4] B,4 C4 | C4 B,4 | B,4 C4 | C8 | C4 C2 C2 | B,4 B,2 C2 | x8 | x8 | %19
w: ||||||||||
[M:3/2] x12 |[M:4/4] x8 | x8 | x8 | x8 | x8 | x8 | x8 | x8 | D8 | B,4 C4 | (C2 B,2) C4 | x8 | %32
w: |||||||||||||
[M:3/2] C4 (C2 B,2) (C2 E2) |[M:4/4] x8 | E6 E2 | (D2 E2 F2 G2) | A8 | G4 F4 | x8 | x8 | x8 | x8 | %42
w: * mo- * ya, _||||||||||
 x8 | x8 | x8 |] %45
w: |||
V:5
 z2!p! E2 F2 G2 |[M:3/2] A4 G2 B2 F2 E2 |[M:4/4] B6 B2 | B2 B2 A2 G2 | F2 F2 B2 A2 | (G4 A4 | %6
w: Bla- ho- slo-|vy, du- she mo- ya,|Hos- po-|da. Bla ho- slo-|ven- nyy ye- sy,|Hos- *|
 F4 G2) A2 | B8- | B2!mf! E2 F2 G2 |[M:3/2] A4 G2 B2 F2 E2 | B6 B2 (B2 A2) |[M:4/4] G4 (A2 G2) | %12
w: * * spo-|dy.|_ Bla- ho- slo-|vy, du- she mo- ya,|Hos- po- da _|i vsya _|
 F4 (B2 A2) | G4 (A2 G2) | (F6 G2) | (A2 G2) F2 A2 | B4 B2 B2 | B8- |!f! B2 E2 F2 G2 | %19
w: i- sto- *|ta mo- *|ya _|I- * mya Svya-|te- ye- Yo-|ho.|_ Bla- ho- slo-|
[M:3/2] A4 G2 B2 F2 E2 |[M:4/4] B6 B2 | B8 | B2 B2 B2 B2 | B8 | B8 | B4 B4 | B8- |!>(! B4 B4 | %28
w: vy, du- she mo- ya,|Hos- po-|da|i ne- za- bu-|vay|vsih|do- bro-|diystv|_ Yo-|
 (B8!>)! |!p! F4) uA4 | A4 A4 | B6 B2 |[M:3/2] A4 A4 A4 |[M:4/4]!<(! (B4 c4- | c6) c2!<)! | %35
w: ho.|_ Bla-|ho- slo-|vy, du-|she mo- ya|Hos- *|* po-|
 (B2 c2 d2 e2) |!ff!!ff! (c4 f4) | d4 d4 | (e8- |!>(! e8 | c4) c2 B2!>)! | B8 |!p! (uB8 | %43
w: da, _ _ _|bla- *|ho- slo-|ven-||* nyy ye-|sy,|Hos-|
 A2 G2) A4 | G8 |] %45
w: * * spo-|dy.|
V:6
 z2!p! E,2 F,2 G,2 |[M:3/2] A,4 G,2 B,2 F,2 E,2 |[M:4/4] B,6 B,2 | B,2 B,2 A,2 G,2 | %4
w: Bla- ho- slo-|vy, du- she mo- ya,|Hos- po-|da. Bla ho- slo-|
 F,2 F,2 B,2 A,2 | (G,4 A,4 | F,4 G,2) A,2 | B,8- | B,2!mf! E,2 F,2 G,2 | %9
w: ven- nyy ye- sy,|Hos- *|* * spo-|dy.|_ Bla- ho- slo-|
[M:3/2] A,4 G,2 B,2 F,2 E,2 | B,6 B,2 (B,2 A,2) |[M:4/4] G,4 (A,2 G,2) | F,4 (B,2 A,2) | %13
w: vy, du- she mo- ya,|Hos- po- da _|i vsya _|i- sto- *|
 G,4 (A,2 G,2) | (F,6 G,2) | (A,2 G,2) F,2 A,2 | B,4 B,2 B,2 | B,8- |!f! B,2 E,2 F,2 G,2 | %19
w: ta mo- *|ya _|I- * mya Svya-|te- ye- Yo-|ho.|_ Bla- ho- slo-|
[M:3/2] A,4 G,2 B,2 F,2 E,2 |[M:4/4] B,,6 B,,2 | B,,8 | B,2 A,2 G,2 F,2 | E,8 |!<(! (F,6 E,2) | %25
w: vy, du- she mo- ya,|Hos- po-|da|i ne- za- bu-|vay|vsih _|
 D,4 E,4!<)! | (F,6 E,2 | D,4)!>(! (E,2 C,2) | B,,8-!>)! |!p! B,,4 uA,,4 | A,4 F,4 | G,6!<(! G,2 | %32
w: do- bro|diystv _|_ Yo- *|ho.|_ Bla-|ho- slo-|vy, du-|
[M:3/2]"_Lov Herren, min sjel, velsignet er du, Herre.\n\nLov Herren, min sjel og all min blir hans hellige navn.\n\nLov Herren, min sjel, og glem ikke alle hans velgjerninger.\n\nLov Herren, min sjel, velsignet Herren.\n" (A,2 G,2) F,4!<)! A,4 | %33
w: she _ mo- ya|
[M:4/4]!<(! (G,4 A,4 | F,6) A,2!<)! | (B,6 G,2) |!ff! F,8 | G,4 G,4 | (C4 B,4 |!>(! A,4 G,4 | %40
w: Hos- *|* po-|da. _|bla-|ho- slo-|ven- *||
 F,4) F,2 F,2!>)! | (E,4 G,,4) |!p! uB,,8- | B,,4 [B,,,B,,]4 | [E,,E,]8 |] %45
w: * nyy ye-|sy, _|Hos-|* spo-|dy.|

